X: 3112
T: We'er no very fou but we'er gayly yet
T: Or the Laird of Skenes Favorite
%R: jig, air
B: Niel Gow & Sons "Complete Repository" v.3 p.11 #2
Z: 2021 John Chambers <jc:trillian.mit.edu>
M: 6/8
L: 1/8
Q: "Slowly"
K: Dm
% - - - - - - - - - -
V: 1 staves=2
z |\
A2d ~d>ef | A2c c2B | A2d d>ef | A2d d2c || A2f Tf>ga | A2c ~c2B | A2G F2G | (A2d) d2 :|
|: B |\
A>GF TF2G | A2c BAG | A>GF TF2G | A2d d2B || A>GF TF2G | A2c BAG | A2d Td>ef | (A2 d2) d :|
% - - - - - - - - - -
V: 2 clef=bass middle=d
z |\
[d3f3a3] [f3a3d'3] | [f3a3] [e3g3] | [d3f3a3] [d3f3a3] | DFA d2e ||\
[f3c'3] [a3c'3] | [f3a3] [e3g3] | f2g a2A | d3 D2 :|
|: e |\
f3 F3 | f2a gfe | f3 f2e | d2A D2e ||\
f3 F3 | f2a gfe | d3 a2A | dAF D2 :|


